X:1
T:Title
%%score { ( 1 3 5 ) | ( 2 4 ) }
L:1/8
M:4/4
K:Eb
V:1 treble nm="Grand Piano"
V:3 treble 
V:5 treble 
V:2 bass 
V:4 bass 
V:1
 z4 z2[Q:1/4=100] EF | GGGG [GB]GFE | G2 G4 G[FA] | [GB][Ac][GB]G FEDE | [DF]6 [EG][FA] | %5
 [GB]2 [Ge]2 B2 G2 | A6 FG | [FA]2 [Ad]2 [Ac]2 [GB]2 | G6 EF | G[FA][GB][Ec] [EB][EG][DF]E | %10
[M:3/4] E6 |[M:1/4] GA |[M:4/4] z2 B6- | B6 z2 | [Ge]2 B2- [G,B-]2 [EB-][EB-] | %15
[M:3/4] [EB-][EB-] [FB-][EB-] [DB]2 |[M:1/4] G[FA] |[M:4/4] [GB][Ac][GB]G FEDE |[M:3/4] [B,DF]6 | %19
[M:1/4] GA |[M:4/4] z2 B6- | B6 z2 | [Ge]2 B2- [G,B-]2 [EB-][EB-] | %23
[M:3/4] [EB-][EB-] [FB-][EB-] [DB]2 |[M:1/4] EE |[M:4/4] G[FA][GB][Ec] B[B,G][DF]E |[M:3/4] E6 |] %27
V:2
 z4 z2 [E,G,B,][E,A,B,] | [E,B,E][E,B,E][E,B,E][E,B,E] [E,E][E,B,E][E,A,D][E,G,] | %2
 [E,B,E]2 [E,B,E]4 [E,B,E][E,B,] | [E,E][E,E][E,E][E,B,E] [D,A,B,][E,G,B,][F,B,][F,=A,C] | %4
 [B,,B,]6 [E,B,][E,B,] | [E,E]2 [E,B,]2 [E,G,E]2 [E,B,E]2 | [F,B,D]6 [F,B,D][E,B,E] | %7
 [B,,B,]2 [B,,B,]2 [B,,B,]2 [D,B,]2 | [E,B,E]6 [E,G,][E,A,E] | %9
 [E,B,E][E,B,][E,B,][A,,A,] [B,,G,][B,,B,][B,,A,][E,G,] |[M:3/4] [E,G,B,]6 |[M:1/4][K:treble] EF | %12
[M:4/4][K:bass] z2 E4 z2 | [E,G,][E,G,]B,,[B,,A,] [E,G,]2[K:treble] AA | %14
 [E,B,]2 [E,G,]2 E,2 [E,G,]2 |[M:3/4] [E,G,][E,G,] [D,B,][C,=A,] [B,,B,]2 |[M:1/4] [E,B,E][E,B,] | %17
[M:4/4] [E,E][E,E][E,E][E,B,E] [D,A,B,][E,G,B,][F,B,][F,=A,C] |[M:3/4] B,,6 |[M:1/4][K:treble] EF | %20
[M:4/4][K:bass] z2 E4 z2 | [E,G,][E,G,]B,,[B,,A,] [E,G,]2[K:treble] AA | %22
 [E,B,]2 [E,G,]2 E,2 [E,G,]2 |[M:3/4] [E,G,][E,G,] [D,B,][C,=A,] [B,,B,]2 |[M:1/4] [E,G,][E,A,] | %25
[M:4/4] [E,B,E][E,B,][E,B,][A,,A,] .[B,,G,]2 [B,,A,][E,G,] |[M:3/4] [E,G,B,]6 |] %27
V:3
 x8 | x8 | x8 | x8 | x8 | x8 | x8 | x8 | x8 | x8 |[M:3/4] x6 |[M:1/4] x2 |[M:4/4] B2 z2 G,2 EE | %13
 .E2 A,D .D2 cd | z2 E4 z2 |[M:3/4] x6 |[M:1/4] x2 |[M:4/4] x8 |[M:3/4] x6 |[M:1/4] x2 | %20
[M:4/4] B2 z2 G,2 EE | .E2 A,D .D2 cd | z2 E4 z2 |[M:3/4] x6 |[M:1/4] x2 |[M:4/4] z4 E2 z2 | %26
[M:3/4] x6 |] %27
V:4
 x8 | x8 | x8 | x8 | x8 | x8 | x8 | x8 | x8 | x8 |[M:3/4] x6 |[M:1/4][K:treble] x2 | %12
[M:4/4][K:bass] [E,G,E]2 [E,G,]2 E,2 [E,G,]2 | x6[K:treble] x2 | x8 |[M:3/4] x6 |[M:1/4] x2 | %17
[M:4/4] x8 |[M:3/4] x6 |[M:1/4][K:treble] x2 |[M:4/4][K:bass] [E,G,E]2 [E,G,]2 E,2 [E,G,]2 | %21
 x6[K:treble] x2 | x8 |[M:3/4] x6 |[M:1/4] x2 |[M:4/4] x8 |[M:3/4] x6 |] %27
V:5
 x8 | x8 | x8 | x8 | x8 | x8 | x8 | x8 | x8 | x8 |[M:3/4] x6 |[M:1/4] x2 |[M:4/4] x8 | %13
 z .E3 z .E3 | x8 |[M:3/4] x6 |[M:1/4] x2 |[M:4/4] x8 |[M:3/4] x6 |[M:1/4] x2 |[M:4/4] x8 | %21
 z .E3 z .E3 | x8 |[M:3/4] x6 |[M:1/4] x2 |[M:4/4] x8 |[M:3/4] x6 |] %27

